X: 2004
T: Yolları Gurbete Bağlayan Dağlar
C: Sadi Işılay
O: Turkey
F: http://compmusic.upf.edu/node/140
N: hicazkar--sarki--duyek--yollari_gurbete--sadi_isilay
N: makam= hicazkar
N: form= sarki
N: usul= duyek = 8/4
M: 8/4
L: 1/16
K: C _1/4B _7/8e _7/8A ^f
Q: 1/4=120
%%MIDI tuningsystem comma53
z2 g4 fe g8  | z2 g4 ga ag3 f4  | e2 f2 {g}f2 g2 e6 g2  | g16  | \
w:  Yol la *  rı   |  gur be *  te  *  bağ  |  la yan  *  *  *  dağ  |  lar   | 
z2 g2 f2 g2 a8  | 
w:  Yaş *  lı  göz  | 
a2 g2 f2 g2 e8  | e2 e4 e2 e3d c2 B2  | d16  | \
w:  *  ler  *  gi bi   |  *  ağ la yan  *  dağ  |  lar   | 
z2 c4 c2 g8  | g2 =f2 e2 d2 c4 _B4  | 
w:  Yaş lı  göz  |  *  ler  *  gi bi   | 
z2 A4 A2 A3_B BA2G  | G8 z8  | z2 c4 c2 c6 Bc  | \
w:  ağ la yan  *  dağ  |  lar   |  Kâh  ba şı  du  | 
d8 d6 (3cBc  | 
w:  vak lı   | 
z2 e4 ed d3c c2 B2  | B12 g4  | z2 g2 f2 g2 a6 ag  | \
w:  bir  ge *  lin  *  gi  |  bi  SAZ  |  Giz *  li  bir  he  | 
g2 f4 g2 e8  | 
w:  ves *  *  le   | 
z2 e4 e2 e3d c2 B2  | d16  | z2 c4 c2 g6 g2  | \
w:  çağ la yan  *  dağ  |  lar    |  Giz li  bir  he  | 
=f2 e2 d2 c2 _B8  | z2 A4 A2 A2 _B2 BA2G  | 
w:  ves *  *  *  le   |  çağ la yan  *  dağ  | 
G8 z8  | e14 g2  | g16  | (3g2f2e2 e8 dc d2  | \
w:  lar   |  ARANAĞME  |   |   | 
c12 cB c2  | d12 cB c2  | B12 (3A2G2A2  | 
w:   |   |   | 
G8 G3A B3c  | G8 z8  | z2 g6 e6 g2  | g16  | \
w:   |   |  Züm  |  rüt   | 
z4 f2 g2 a4 g4  | z2 =f2 =e2 f2 g6 f2  | 
w:  du va ğın la   |  al *  *  tın  yü  | 
g=f e4 d2 d8  | z2 c2 B2 c2 d2 e4 ed  | \
w:  zün  *  *  *  de   |  Ley *  *  lâ *  ya   | 
d3c c3B B8  | z2 A2 G2 A2 Bc _7/8d4 cB  | 
w:  ben *  zer *  sin  |  Mec *  *  nun  *  *  gö  | 
B3A A3G G8  | z2 c2 B2 c2 d6 d2  | d14 (3cBc  | \
w:  zün *  *  *  de   |  Bi len  bi lir  ne   |  var   | 
z2 e6 e6 ed  | d3c c2 B2 B8  | 
w:  dağ lar  sö  |  zün *  *  *  de   | 
z2 g2 f2 g2 a8  | z2 g2 f2 g2 e8  | z2 e4 e2 e3d c2 B2  | d16  | \
w:  Sa bah  gü len   |  ak *  *  şam   |  ağ la yan  *  dağ  |  lar   | 
z2 c2 c2 c2 g8  | 
w:  Sa bah  gü len   | 
z2 =f2 e2 d2 c4 _B4  | z2 A4 A2 A3_B BA2G  | G16  | |


